icons/3_Generic/Linux.svg

<svg width="1024" height="1024" viewBox="0 0 1024 1024" fill="none" xmlns="http://www.w3.org/2000/svg">
<g clip-path="url(#clip0_3_404)">
<path d="M512 1024C794.77 1024 1024 794.77 1024 512C1024 229.23 794.77 0 512 0C229.23 0 0 229.23 0 512C0 794.77 229.23 1024 512 1024Z" fill="#8C72BD"/>
<path d="M777.121 757C770.251 762.48 760.241 761.36 754.741 754.5C751.231 749.98 666.171 641.32 666.171 425.56C666.171 340.42 597.151 271.39 512.001 271.39C426.851 271.39 357.831 340.41 357.831 425.56C357.831 641.32 272.901 749.98 269.291 754.5C263.791 761.38 253.751 762.51 246.871 757.01C239.991 751.51 238.861 741.47 244.361 734.59C245.341 733.34 325.941 629.06 325.941 425.56C325.941 322.8 409.241 239.5 512.001 239.5C614.761 239.5 698.061 322.8 698.061 425.56C698.061 629.25 778.811 733.55 779.641 734.59C785.131 741.48 784.001 751.51 777.111 757H777.121ZM437.581 430.88C422.901 430.88 411.001 442.78 411.001 457.46C411.001 472.14 422.901 484.04 437.581 484.04C452.261 484.04 464.161 472.14 464.161 457.46C464.161 442.78 452.261 430.88 437.581 430.88ZM613.011 457.46C613.011 442.78 601.111 430.88 586.431 430.88C571.751 430.88 559.851 442.78 559.851 457.46C559.851 472.14 571.751 484.04 586.431 484.04C601.111 484.04 613.011 472.14 613.011 457.46ZM434.101 538.88C426.221 534.94 416.631 538.13 412.691 546.02C408.751 553.9 411.941 563.49 419.831 567.43L504.891 609.96C507.101 611.06 509.541 611.64 512.011 611.63C514.491 611.63 516.941 611.06 519.161 609.96L604.221 567.43C612.101 563.49 615.301 553.9 611.361 546.02C607.421 538.14 597.831 534.94 589.951 538.88L512.021 577.85L434.111 538.88H434.101ZM512.011 664.79C461.841 665.22 415.831 692.76 391.761 736.77C387.471 744.47 390.241 754.19 397.941 758.47C405.641 762.76 415.361 759.99 419.641 752.29C446.671 701.27 509.941 681.82 560.961 708.84C579.471 718.64 594.601 733.78 604.411 752.29C607.221 757.34 612.551 760.48 618.341 760.48C621.051 760.48 623.711 759.79 626.071 758.46C633.771 754.18 636.541 744.47 632.261 736.77C608.181 692.76 562.171 665.23 512.011 664.79Z" fill="white"/>
</g>
<defs>
<clipPath id="clip0_3_404">
<rect width="1024" height="1024" fill="white"/>
</clipPath>
</defs>
</svg>

<svg width="1024" height="1024" fill="none" xmlns="http://www.w3.org/2000/svg"><g clip-path="url(#a)"><path d="M512 1024c282.77 0 512-229.23 512-512S794.77 0 512 0 0 229.23 0 512s229.23 512 512 512Z" fill="#8C72BD"/><path d="M777.121 757c-6.87 5.48-16.88 4.36-22.38-2.5-3.51-4.52-88.57-113.18-88.57-328.94 0-85.14-69.02-154.17-154.17-154.17-85.15 0-154.17 69.02-154.17 154.17 0 215.76-84.93 324.42-88.54 328.94-5.5 6.88-15.54 8.01-22.42 2.51-6.88-5.5-8.01-15.54-2.51-22.42.98-1.25 81.58-105.53 81.58-309.03 0-102.76 83.3-186.06 186.06-186.06s186.06 83.3 186.06 186.06c0 203.69 80.75 307.99 81.58 309.03 5.49 6.89 4.36 16.92-2.53 22.41h.01Zm-339.54-326.12c-14.68 0-26.58 11.9-26.58 26.58 0 14.68 11.9 26.58 26.58 26.58 14.68 0 26.58-11.9 26.58-26.58 0-14.68-11.9-26.58-26.58-26.58Zm175.43 26.58c0-14.68-11.9-26.58-26.58-26.58-14.68 0-26.58 11.9-26.58 26.58 0 14.68 11.9 26.58 26.58 26.58 14.68 0 26.58-11.9 26.58-26.58Zm-178.91 81.42c-7.88-3.94-17.47-.75-21.41 7.14-3.94 7.88-.75 17.47 7.14 21.41l85.06 42.53c2.21 1.1 4.65 1.68 7.12 1.67 2.48 0 4.93-.57 7.15-1.67l85.06-42.53c7.88-3.94 11.08-13.53 7.14-21.41-3.94-7.88-13.53-11.08-21.41-7.14l-77.93 38.97-77.91-38.97h-.01Zm77.91 125.91c-50.17.43-96.18 27.97-120.25 71.98-4.29 7.7-1.52 17.42 6.18 21.7 7.7 4.29 17.42 1.52 21.7-6.18 27.03-51.02 90.3-70.47 141.32-43.45 18.51 9.8 33.64 24.94 43.45 43.45 2.81 5.05 8.14 8.19 13.93 8.19 2.71 0 5.37-.69 7.73-2.02 7.7-4.28 10.47-13.99 6.19-21.69-24.08-44.01-70.09-71.54-120.25-71.98Z" fill="#fff"/></g><defs><clipPath id="a"><path fill="#fff" d="M0 0h1024v1024H0z"/></clipPath></defs></svg>
